X: 1864
T: The Second Brother of the Great March
B: australian traditional tunes wiki
M:4/4
L:1/8
R: March
Q: 1/4=100
K:G
V:1 
||"G"g2g>dg2"C"a/g/f/e/|"G"de dB G3B/B/|"C"c>d e (3c/e/c/ "G"B>c dB|"A7"A2A>BA2"D7"de/f/|
"G"g2g>dg2"C"a/g/f/e/|"G"de dB G3A|"Em"Bd cB "D7"Ac BA|"G"G2G>G G3G||
"D7"fa d>d df ac'|"G"b2g>gg3g/g/|"D7"a2d>d df ac'|"G"b2 g>g "D7"g3d|
"G"g2g2"C"ag fe|"D"df af "Em"ed cA/c/|"G"Bd cB/B/ "D7"Ac BA|"G"G2G>GG4||
% abcbook-tune_id 6342d53ad8191a69cea2f1b6


% abcbook-boost 0
% abcbook-tablature 
% abcbook-transpose 
% abcbook-lastupdated 1665324388899
% abcbook-soundfonts 
% abcbook-repeats 1
% NFF Book 2016

